X: 128
T:Slow March. JaW.128
M:C
Q:130
C:"Clarinette Primo"
S:James Winder Ms, Lancashire, 1835-41
R:March
O:England
A:Wyresdale,Lancashire
H:1/8
Z:vmp.Chris Partington, Aug 2004
K:C
A|c2c>c c3e|g2ab c'3g|a2g2 f2e2|d2d>d d2e>f|!
g2c'>a g2c'>a|g>fe>d e2d>c|B>dgc B2A2|G2G>G G2:|!
|:G>G|d2d>d d2g>f|e>def e>a(gf)|e2a2g2f2|e2e>ee2c>e|!
d>cde d2g>f|e2d2 e2d2|c>de>f g>ag^f|g2g>g g2c/d/e/f/|!
g3f e2e2|f>gf>e d2d>f|e>dc>a g2fe|d2d>d d2e>f|!
g2c'>a g2c'>a|g>f.e.d e2c>d|e>ga'>f e2d/c/d/e/|c2c>c c2:|]
